icons/communication/comment-attach-24.svg

<svg width="24" height="24" viewBox="0 0 24 24" fill="none" xmlns="http://www.w3.org/2000/svg">
<path d="M12.25 7.25C12.25 6.83579 12.5858 6.5 13 6.5C13.4142 6.5 13.75 6.83579 13.75 7.25V11.375C13.75 12.5486 12.7986 13.5 11.625 13.5C10.4514 13.5 9.5 12.5486 9.5 11.375V8.75C9.5 8.33579 9.16421 8 8.75 8C8.33579 8 8 8.33579 8 8.75V11.375C8 13.377 9.62297 15 11.625 15C13.627 15 15.25 13.377 15.25 11.375V7.25C15.25 6.00736 14.2426 5 13 5C11.7574 5 10.75 6.00736 10.75 7.25V11.25C10.75 11.6642 11.0858 12 11.5 12C11.9142 12 12.25 11.6642 12.25 11.25V7.25Z" fill="black"/>
<path fill-rule="evenodd" clip-rule="evenodd" d="M1 3.75C1 2.7835 1.7835 2 2.75 2H21.25C22.2165 2 23 2.7835 23 3.75V16.25C23 17.2165 22.2165 18 21.25 18H11.1406C11.0778 18 11.0173 18.0236 10.9712 18.0662L7.09724 21.6374C6.29633 22.3757 5 21.8076 5 20.7183V18H2.75C1.7835 18 1 17.2165 1 16.25V3.75ZM2.75 3.5C2.61193 3.5 2.5 3.61193 2.5 3.75V16.25C2.5 16.3881 2.61193 16.5 2.75 16.5H5.5C6.05228 16.5 6.5 16.9477 6.5 17.5V20.1478L9.95446 16.9633C10.2776 16.6654 10.7011 16.5 11.1406 16.5H21.25C21.3881 16.5 21.5 16.3881 21.5 16.25V3.75C21.5 3.61193 21.3881 3.5 21.25 3.5H2.75Z" fill="black"/>
</svg>

<svg xmlns="http://www.w3.org/2000/svg" width="24" height="24"><path d="M12.25 7.25a.75.75 0 011.5 0v4.125a2.125 2.125 0 01-4.25 0V8.75a.75.75 0 00-1.5 0v2.625a3.625 3.625 0 007.25 0V7.25a2.25 2.25 0 00-4.5 0v4a.75.75 0 001.5 0v-4z"/><path fill-rule="evenodd" d="M1 3.75C1 2.784 1.784 2 2.75 2h18.5c.966 0 1.75.784 1.75 1.75v12.5A1.75 1.75 0 0121.25 18H11.14a.25.25 0 00-.169.066l-3.874 3.571c-.8.739-2.097.17-2.097-.919V18H2.75A1.75 1.75 0 011 16.25V3.75zm1.75-.25a.25.25 0 00-.25.25v12.5c0 .138.112.25.25.25H5.5a1 1 0 011 1v2.648l3.454-3.185a1.75 1.75 0 011.187-.463H21.25a.25.25 0 00.25-.25V3.75a.25.25 0 00-.25-.25H2.75z"/></svg>
